X: 1
T:Blackberry Blossom
S:Swiped from Jim Coon
Z:Nigel Gatherer
M:7/8
L:1/8
K:G
gbag fag | egfe dBA | DEFG ABc | GABc A2 d | gbag fag | egfe dBA |
DEFG ABc | B2 [BG][BG] [B3G3] :: BeBe deB | BeBe deB |  BeBe deB |
fefg agf | BeBe deB | BeBe deB | cBcd ecd | d^cdf g3 :|]
